!!!OTL: D'Meedche vu Goetzen, S. 32
!!!id: L0024
**kern
*clefG2
*k[]
*A:
{8e
=1
4a
8a
8a
8g#
8a
=2
4.b
4g#
8e
=3
4a}
4.r
=4
{8e
=5
8a
8a
8a
8a
8g#
8a
=6
4.b
4g#
8e
=7
4a}
4.r
=8
{8e
=9
4cc#
8cc#
8cc#
8b
8cc#
=10
4.dd
4cc#}
=11
{8cc#
=12
8b
8b
8b
8b
8b-
8b
=13
4.ee
4cc#}
=14
{8cc#
=15
2a
8r
8cc#
=16
2a}
8r
==
*-
!!!minrhy: 8
!!!meters: 6/8 ]  ZZ[5
!!!cut: D'Meedche vu Goetzen, S. 32
!!!reg: Luxemburg
!!!trd: Die Luxemburger Volkslieder &auml;lterer Zeit, Luxemburg 1904 posth.
!!!rhy1: X  X_XXXX  X_.X_X  X_0_.
!!!rhy2: X  XXXXXX  X_.X_X  X_0_.
!!!key: L0024  08  A 6/8 ]  ZZ[5
!!!mod: HEPTATONIK DUR ?]  AMBITUS[8
!!!kad: 11331
!!!akz: 112-71_112-71_3343_2253_1111_
!!!fot: 'a__av_as"b__as"
!!!for: 'a__b__aw_bw_c__
!!!fok: '~a_~a_/__S__\__
!! PHRAS[AUFTAKTIG]
!!!fkt: ??, Liebeslied
!! FONTAINE, Ed.:
!! PR[16] 2K[11] 2G[15] 3K[0] 3G[8] 4A[0] 4Ü[2] 5A[3] 6K[0] 6G[0]
!! 7K[0] 7G[0] 8A[2] MEHR[0] SI[41] ABS[61] SR[26] SP[15]
!! ST[16] 2k[5] 2g[15] 3k[10] 3g[8] 4d[0] 4ü[0] 5d[3] 6k[0] 6g[0]
!! 7k[0] 7g[2] 8d[0] mehr[0] si[43] dm[-2] sr[20] sp[23]
!! 1F[55] 2F[43] 3F[2] 4F[0] LF[0] 2P[0] 3P[0] 4P[0] TRI[0] DF[3] AB[65]
!! TF[0] U3K[0] U3[0] U4[0] U4Ü[0] U5[3] U6K[0] U6[3] U7K[0] U7[6]
!! N1[19] N2K[0] N2[18] N3K[0] N3[21] N4[10] N4Ü[0] N5[16] N6K[0] N6[0]
!!!n7k: 0] N7[3] O1[0] O2K[0] O2[0] O3K[0] O3[0] HÖ[0
!!!RNB: symbol: &auml;      = a umlaut  (UTF-8: Å„)
